X:1
T: Saddle the Pony
P:Roche version
R:Jig
Q:180
K:D
M:6/8
L:1/16
|:a2|e2c2A2 B2A2F2|A2F2E2 E2F2A2|A2c2A2 B2A2B2|c2B2B2 B4a2|
e2c2A2 B2A2F2|A2F2E2 E2F2A2|ABc2A2 B2A2B2|c2A2A2 A4:|
|:c2|c2e2e2 d2f2f2|c2e2e2 e2c2A2|c2e2e2 d2f2f2|e2c2A2 B4A2|
c2e2e2 d2f2f2|c2e2e2 e2c2A2|ABc2A2 B2A2B2|c2A2A2 A4:|
